X:12277
T:Oh!say not Woman's Heart is bought. CJF.161
T:say not Woman's heart is bought,Oh!. CJF.161
T:Woman's heart is bought,Oh! say not. CJF.161
M:2/4
L:1/16
Q:60
S: C.J.Fox MS, 1829/33, Beverley,E.Yorks.
R:Air
O:England
A:East Yorkshire
B:Kidson Coll.Mitchell Lib.M1805
N:The triplets do not have 3'2 over them in the MS. - PJH.
Z:P J Headford 2000
K:G
G2|Bd3 ce3|d3B G2d2|e3fg3e|fd3z2d2|ec3eg3|(d2B2)(G2^G2)|A2e2d3A|B3Gz2d2|
